X:18466
T:Waltz. CJF.115
M:3/8
L:1/16
Q:60
S: C.J.Fox MS, 1829/33, Beverley,E.Yorks.
R:Waltz
O:England
A:East Yorkshire
B:Kidson Coll.Mitchell Lib.M1805
N:"C J Fox" is on stave at end of tune. - PJH.
Z:P J Headford 2000
K:D
f>d|A2A2 f>d|A2A2 af|e^defge|fdcedB|A2A2 f>d|\
A2A2 ef|(gfedce)|d4:||:!(ef)|(gf).e.a(gf)|
(ed).c.e(cA)|dcdefg|e2e2f2|gececA|gececA|dcdfec|.d2.d2:||


